X: 33998
T: Reel Around The Sun
R: reel
M: 4/4
K: Eminor
|:E2(3EEE EB,FB,|GB,AB, GB,FB,|E2(3EEE EB,FB,|GB,AB, B2de|
fgfe deBd|AdBd AdBd|E2BE cEBE|{A}GF DF E4:|
|:{f}edBd efgf|edBd AdBd|{f}edBd efgf|edBd efga|
bec'e beae|bec'e beae|{c'}bagf eded|BGEF D4:|

